assets/Postbox/Flat/postbox_flat.svg

<svg width="32" height="32" viewBox="0 0 32 32" fill="none" xmlns="http://www.w3.org/2000/svg">
<path d="M19.048 30V23.6824L16.5 22L13.6493 23.6824V30H19.048Z" fill="#9B9B9B"/>
<path d="M23.2244 2H9.47294C8.10681 2 7 3.10681 7 4.47294V21.2104C7 22.5756 8.10681 23.6833 9.47294 23.6833H23.2254C24.5906 23.6833 25.6983 22.5765 25.6983 21.2104V4.47294C25.6974 3.10681 24.5905 2 23.2244 2Z" fill="#F92F60"/>
<path d="M10.6493 4.45142H22.0481C22.2811 4.45142 22.4709 4.64121 22.47 4.87422C22.47 5.10723 22.2811 5.29703 22.0472 5.29703H10.6493C10.4163 5.29703 10.2265 5.10817 10.2265 4.87422C10.2265 4.64121 10.4153 4.45142 10.6493 4.45142Z" fill="#CA0B4A"/>
<path d="M11.0655 12.8408H21.6319C22.0951 12.8408 22.4709 13.2166 22.4709 13.6798V19.5342C22.4709 19.9974 22.0951 20.3733 21.6319 20.3733H11.0655C10.6023 20.3733 10.2265 19.9974 10.2265 19.5342V13.6798C10.2265 13.2166 10.6023 12.8408 11.0655 12.8408Z" fill="#CA0B4A"/>
<path d="M20.5636 6.56812H19.9271L16.009 9.17851L12.8011 6.56812H12.1338C11.0805 6.56812 10.2265 7.42218 10.2265 8.47544C10.2265 9.52869 11.0805 10.3828 12.1338 10.3828H20.5636C21.6168 10.3828 22.4709 9.52869 22.4709 8.47544C22.4709 7.42218 21.6168 6.56812 20.5636 6.56812Z" fill="#321B41"/>
<path d="M13.8077 6.56824H19.2609L17.3997 15.0374H12L13.8077 6.56824Z" fill="#E1D8EC"/>
<path d="M13.1368 6.56824H14.8721L16.1369 9.58704C16.2478 9.85105 16.1736 10.1893 15.9481 10.4533L12.0254 15.0384H11.6496C11.4504 15.0384 11.3235 14.8768 11.3677 14.6776L13.1368 6.56824Z" fill="#CDC4D6"/>
<path d="M18.2028 6.56824H19.9381L18.1692 14.6766C18.126 14.8758 17.9287 15.0374 17.7295 15.0374H17.3537L15.6028 10.857L15.9481 10.4533C16.1736 10.1893 16.2478 9.85105 16.1369 9.58704L15.9674 9.18241L18.2028 6.56824Z" fill="#F3EEF8"/>
<path d="M12.778 6.56824H14.513L15.778 9.58746C15.8889 9.85148 15.8147 10.1897 15.5892 10.4537L11.6665 15.0388H11.2906C11.0915 15.0388 10.9646 14.8772 11.0088 14.678L12.778 6.56824Z" fill="#F3EEF8"/>
</svg>

<svg xmlns="http://www.w3.org/2000/svg" width="32" height="32" fill="none"><path fill="#9B9B9B" d="M19.048 30v-6.318L16.5 22l-2.85 1.682V30h5.398Z"/><path fill="#F92F60" d="M23.224 2H9.473A2.472 2.472 0 0 0 7 4.473V21.21a2.473 2.473 0 0 0 2.473 2.473h13.752a2.473 2.473 0 0 0 2.473-2.473V4.473A2.474 2.474 0 0 0 23.224 2Z"/><path fill="#CA0B4A" d="M10.65 4.451h11.398a.422.422 0 1 1 0 .846H10.648a.423.423 0 0 1 0-.846ZM11.066 12.84h10.566a.84.84 0 0 1 .839.84v5.854a.84.84 0 0 1-.84.84H11.066a.84.84 0 0 1-.838-.84V13.68a.84.84 0 0 1 .838-.84Z"/><path fill="#321B41" d="M20.564 6.568h-.637l-3.918 2.61-3.208-2.61h-.667a1.907 1.907 0 0 0 0 3.815h8.43a1.908 1.908 0 0 0 0-3.815Z"/><path fill="#E1D8EC" d="M13.808 6.568h5.453l-1.861 8.47H12l1.808-8.47Z"/><path fill="#CDC4D6" d="M13.137 6.568h1.735l1.265 3.019c.11.264.037.602-.189.866l-3.923 4.585h-.375c-.2 0-.327-.161-.282-.36l1.769-8.11Z"/><path fill="#F3EEF8" d="M18.203 6.568h1.735l-1.769 8.109c-.043.199-.24.36-.44.36h-.375l-1.751-4.18.345-.404c.226-.264.3-.602.189-.866l-.17-.405 2.236-2.614Z"/><path fill="#F3EEF8" d="M12.778 6.568h1.735l1.265 3.02c.11.263.037.602-.189.866l-3.923 4.585h-.375c-.2 0-.326-.162-.282-.361l1.769-8.11Z"/></svg>
